public/logos/18_india/KGF.svg

<?xml version="1.0" encoding="UTF-8"?>
<svg id="Layer_2" data-name="Layer 2" xmlns="http://www.w3.org/2000/svg" version="1.1" xmlns:xlink="http://www.w3.org/1999/xlink" viewBox="0 0 33.1 33.1">
  <defs>
    <style>
      .cls-1 {
        fill: none;
      }

      .cls-1, .cls-2, .cls-3 {
        stroke-width: 0px;
      }

      .cls-4 {
        clip-path: url(#clippath-1);
      }

      .cls-5 {
        clip-path: url(#clippath);
      }

      .cls-2 {
        fill: #fff;
      }

      .cls-3 {
        fill: #d81f3d;
      }
    </style>
    <clipPath id="clippath">
      <rect class="cls-1" x="3" y="2.3" width="28.5" height="28.5"/>
    </clipPath>
    <clipPath id="clippath-1">
      <rect class="cls-1" x="3" y="2.3" width="28.5" height="28.5"/>
    </clipPath>
  </defs>
  <g id="Dire_line" data-name="Dire line">
    <circle class="cls-2" cx="16.5" cy="16.5" r="16.3"/>
  </g>
  <g id="Tokens">
    <g id="Kolar">
      <g class="cls-5">
        <g>
          <path class="cls-3" d="M25.9,10.9v-3.2h-3.3v-2.6h-11.3v2.6h-3.2v3.2h-2.6v11.3h2.6v3.3h3.2v2.5h11.3v-2.5h3.3v-3.3h2.5v-11.3h-2.5ZM27.5,21.3h-1.6v-2.3h-.9v5.7h-5.4v.9h2.1v1.5h-9.5v-1.5h2.6v-.9h-5.9v-5.7h-.9v2.3h-1.6v-9.5h1.6v2.4h.9v-5.6h5.9v-.9h-2.6v-1.7h9.5v1.7h-2.1v.9h5.4v5.6h.9v-2.4h1.6v9.5Z"/>
          <g class="cls-4">
            <path class="cls-3" d="M17,10c-3.7,0-6.7,3-6.7,6.7s3,6.7,6.7,6.7,6.7-3,6.7-6.7-3-6.7-6.7-6.7M17,22.4l-5.8-5.8,5.8-5.8,5.8,5.8-5.8,5.8Z"/>
          </g>
        </g>
      </g>
    </g>
  </g>
</svg>

<svg xmlns="http://www.w3.org/2000/svg" id="Layer_2" data-name="Layer 2" viewBox="0 0 33.1 33.1"><defs><clipPath id="clippath"><path d="M3 2.3h28.5v28.5H3z" class="cls-1"/></clipPath><clipPath id="clippath-1"><path d="M3 2.3h28.5v28.5H3z" class="cls-1"/></clipPath><style>.cls-1,.cls-3{fill:none;stroke-width:0}.cls-3{fill:#d81f3d}</style></defs><circle id="Dire_line" cx="16.5" cy="16.5" r="16.3" data-name="Dire line" style="stroke-width:0;fill:#fff"/><g id="Tokens"><g id="Kolar" style="clip-path:url(#clippath)"><path d="M25.9 10.9V7.7h-3.3V5.1H11.3v2.6H8.1v3.2H5.5v11.3h2.6v3.3h3.2V28h11.3v-2.5h3.3v-3.3h2.5V10.9zm1.6 10.4h-1.6V19H25v5.7h-5.4v.9h2.1v1.5h-9.5v-1.5h2.6v-.9H8.9V19H8v2.3H6.4v-9.5H8v2.4h.9V8.6h5.9v-.9h-2.6V6h9.5v1.7h-2.1v.9H25v5.6h.9v-2.4h1.6z" class="cls-3"/><path d="M17 10a6.7 6.7 0 1 0 0 13.4A6.7 6.7 0 0 0 17 10m0 12.4-5.8-5.8 5.8-5.8 5.8 5.8z" class="cls-3" style="clip-path:url(#clippath-1)"/></g></g></svg>
